X: 3751
T: Bird's, The
R: hornpipe
M: 4/4
K: Adorian
ed|cAAG ABcA|GEDE A2ed|cAAG ABcd|efged2ed|
cAAG ABcA|GEDE G3A|B3A AGEG|AGAB A2:|
|:ce|g3e gece|g2ge g2eg|a2ag ageg|a2ab a2ag|
g2ge d2ed|cdeg aged|eged cAB2|A2BG A2:|

